!!!OTL: Meihe chuanfu haozi
!!!ARE: Asia, China,ÿGuangdong, Dapu
!! II, 394
!!!SCT: C1512
!!!YEM: Copyright 1995, estate of Helmut Schaffrath.
**kern
*ICvox
*Ivox
!! Mixed meters:  2/4; 3/4
*M2/4
*k[]
*C:
{8g
8e
8a
4a
8cc
=1
8g
8e
2d}
=2
{8cc
4cc
8r
=3
8dd
4dd
8r
=4
*M3/4
12cc
12dd
12ee
2dd}
=5
*M2/4
{8cc
4cc
16dd
16ee
=6
*M3/4
8cc
8a
2g}
=7
{8g
8e
8a
4a
8cc
=8
8g
8e
2d}
=9
*M2/4
{8cc
4cc
8r
=10
8dd
4dd
8r
=11
*M3/4
12cc
12dd
12ee
2dd}
=12
*M2/4
{8cc
4.cc
=13
16dd
16dd
4.cc}
==
!!!AGN: Haozi
!!!AMT: irregular
!!!AIN: vox
!!!EED: Helmut Schaffrath
!!!EEV: 1.0
*-
